src/public/images/third-main-block-second-section-background-desk.svg

<svg width="1189" height="316" viewBox="0 0 1189 316" fill="none" xmlns="http://www.w3.org/2000/svg">
<path opacity="0.8" d="M262.914 -16.1736C263.045 12.5216 238.505 38.7643 198.369 57.9337C158.272 77.0846 102.777 89.0833 41.3926 89.3632C-19.9914 89.6431 -75.5934 78.151 -115.864 59.3665C-156.173 40.5639 -180.951 14.546 -181.082 -14.1491C-181.212 -42.8442 -156.673 -69.087 -116.537 -88.2564C-76.4395 -107.407 -20.9446 -119.406 40.4395 -119.686C101.824 -119.966 157.426 -108.474 197.696 -89.6891C238.005 -70.8865 262.783 -44.8687 262.914 -16.1736Z" stroke="#575775"/>
<path opacity="0.8" d="M242.586 -29.1333C242.641 -17.1267 236.704 -5.61254 225.817 4.93619C214.93 15.4862 199.122 25.0375 179.531 33.0982C140.351 49.2185 86.1348 59.3372 26.1738 59.6106C-33.7873 59.884 -88.0937 50.2601 -127.419 34.4978C-147.083 26.6161 -162.977 17.2093 -173.96 6.75901C-184.942 -3.69001 -190.984 -15.1495 -191.039 -27.1561C-191.094 -39.1627 -185.157 -50.6769 -174.27 -61.2256C-163.382 -71.7756 -147.575 -81.3269 -127.984 -89.3876C-88.8039 -105.508 -34.5876 -115.627 25.3735 -115.9C85.3346 -116.173 139.641 -106.55 178.966 -90.7872C198.63 -82.9055 214.524 -73.4987 225.507 -63.0484C236.49 -52.5994 242.531 -41.1399 242.586 -29.1333Z" stroke="#575775"/>
<path opacity="0.8" d="M225.464 -54.7694C225.518 -42.7554 219.813 -31.2404 209.358 -20.6959C198.901 -10.1495 183.718 -0.602553 164.9 7.45349C127.265 23.5647 75.1831 33.673 17.5792 33.9357C-40.0247 34.1983 -92.1967 24.5653 -129.977 8.79799C-148.868 0.91389 -164.137 -8.49419 -174.69 -18.9448C-185.24 -29.3935 -191.051 -40.856 -191.105 -52.87C-191.16 -64.884 -185.455 -76.399 -175 -86.9434C-164.543 -97.4899 -149.36 -107.037 -130.542 -115.093C-92.9069 -131.204 -40.825 -141.312 16.779 -141.575C74.3829 -141.838 126.555 -132.205 164.335 -116.437C183.226 -108.553 198.495 -99.1452 209.048 -88.6945C219.598 -78.2458 225.409 -66.7833 225.464 -54.7694Z" stroke="#575775"/>
<g opacity="0.4">
<mask id="path-4-inside-1_8_6213" fill="white">
<path d="M729 316C729 257.122 752.389 200.655 794.022 159.022C835.655 117.389 892.122 94 951 94C1009.88 94 1066.34 117.389 1107.98 159.022C1149.61 200.655 1173 257.122 1173 316L951 316L729 316Z"/>
</mask>
<path d="M729 316C729 257.122 752.389 200.655 794.022 159.022C835.655 117.389 892.122 94 951 94C1009.88 94 1066.34 117.389 1107.98 159.022C1149.61 200.655 1173 257.122 1173 316L951 316L729 316Z" stroke="#575775" stroke-width="4" mask="url(#path-4-inside-1_8_6213)"/>
</g>
<g opacity="0.4">
<mask id="path-5-inside-2_8_6213" fill="white">
<path d="M713 316C713 252.878 738.075 192.342 782.709 147.709C827.342 103.075 887.878 78 951 78C1014.12 78 1074.66 103.075 1119.29 147.708C1163.92 192.342 1189 252.878 1189 316L951 316L713 316Z"/>
</mask>
<path d="M713 316C713 252.878 738.075 192.342 782.709 147.709C827.342 103.075 887.878 78 951 78C1014.12 78 1074.66 103.075 1119.29 147.708C1163.92 192.342 1189 252.878 1189 316L951 316L713 316Z" stroke="#575775" stroke-width="4" mask="url(#path-5-inside-2_8_6213)"/>
</g>
<g opacity="0.4">
<mask id="path-6-inside-3_8_6213" fill="white">
<path d="M746 316C746 261.631 767.598 209.488 806.043 171.043C844.488 132.598 896.631 111 951 111C1005.37 111 1057.51 132.598 1095.96 171.043C1134.4 209.488 1156 261.63 1156 316L951 316L746 316Z"/>
</mask>
<path d="M746 316C746 261.631 767.598 209.488 806.043 171.043C844.488 132.598 896.631 111 951 111C1005.37 111 1057.51 132.598 1095.96 171.043C1134.4 209.488 1156 261.63 1156 316L951 316L746 316Z" stroke="#575775" stroke-width="4" mask="url(#path-6-inside-3_8_6213)"/>
</g>
<circle cx="642" cy="142" r="7" fill="#575775"/>
<circle cx="689" cy="62" r="11" fill="#575775"/>
<circle cx="678" cy="228" r="11" fill="#575775"/>
</svg>

<svg xmlns="http://www.w3.org/2000/svg" width="1189" height="316" fill="none"><path stroke="#575775" d="M262.914-16.174c.131 28.696-24.409 54.938-64.545 74.108-40.097 19.15-95.592 31.15-156.976 31.43-61.384.28-116.986-11.213-157.257-29.998-40.309-18.802-65.087-44.82-65.218-73.515-.13-28.695 24.409-54.938 64.545-74.107 40.098-19.151 95.592-31.15 156.977-31.43 61.384-.28 116.986 11.212 157.256 29.997 40.309 18.802 65.087 44.82 65.218 73.515Z" opacity=".8"/><path stroke="#575775" d="M242.586-29.133c.055 12.006-5.882 23.52-16.769 34.07-10.887 10.55-26.695 20.1-46.286 28.161-39.18 16.12-93.396 26.24-153.357 26.513-59.961.273-114.268-9.35-153.593-25.113-19.664-7.882-35.558-17.289-46.541-27.739-10.982-10.449-17.024-21.909-17.079-33.915-.055-12.007 5.882-23.52 16.769-34.07 10.888-10.55 26.695-20.1 46.286-28.162 39.18-16.12 93.396-26.239 153.357-26.512 59.962-.273 114.268 9.35 153.593 25.113 19.664 7.882 35.558 17.288 46.541 27.739C236.49-52.6 242.531-41.14 242.586-29.133Z" opacity=".8"/><path stroke="#575775" d="M225.464-54.77c.054 12.015-5.651 23.53-16.106 34.074-10.457 10.547-25.64 20.093-44.458 28.15-37.635 16.11-89.717 26.219-147.32 26.482-57.605.262-109.777-9.37-147.557-25.138-18.891-7.884-34.16-17.292-44.713-27.743-10.55-10.448-16.361-21.911-16.415-33.925-.055-12.014 5.65-23.529 16.105-34.073 10.457-10.547 25.64-20.094 44.458-28.15 37.635-16.111 89.717-26.219 147.321-26.482 57.604-.263 109.776 9.37 147.556 25.138 18.891 7.884 34.16 17.292 44.713 27.742 10.55 10.45 16.361 21.912 16.416 33.926Z" opacity=".8"/><g opacity=".4"><mask id="a" fill="#fff"><path d="M729 316a222 222 0 1 1 444 0H729Z"/></mask><path stroke="#575775" stroke-width="4" d="M729 316a222 222 0 1 1 444 0H729Z" mask="url(#a)"/></g><g opacity=".4"><mask id="b" fill="#fff"><path d="M713 316a237.996 237.996 0 0 1 69.709-168.291 237.996 237.996 0 0 1 336.581-.001A238.018 238.018 0 0 1 1189 316H713Z"/></mask><path stroke="#575775" stroke-width="4" d="M713 316a237.996 237.996 0 0 1 69.709-168.291 237.996 237.996 0 0 1 336.581-.001A238.018 238.018 0 0 1 1189 316H713Z" mask="url(#b)"/></g><g opacity=".4"><mask id="c" fill="#fff"><path d="M746 316a205 205 0 0 1 410 0H746Z"/></mask><path stroke="#575775" stroke-width="4" d="M746 316a205 205 0 0 1 410 0H746Z" mask="url(#c)"/></g><circle cx="642" cy="142" r="7" fill="#575775"/><circle cx="689" cy="62" r="11" fill="#575775"/><circle cx="678" cy="228" r="11" fill="#575775"/></svg>
